actions/22x22-dark/auto-type.svg

<svg height="22" viewBox="0 0 22 22" width="22" xmlns="http://www.w3.org/2000/svg"><path d="m6.2 3a3.2 3.2 0 0 1 3.2 3.2v1.6h3.2v-1.6a3.2 3.2 0 0 1 3.2-3.2 3.2 3.2 0 0 1 3.2 3.2 3.2 3.2 0 0 1 -3.2 3.2h-1.6v3.2h1.6a3.2 3.2 0 0 1 3.2 3.2 3.2 3.2 0 0 1 -3.2 3.2 3.2 3.2 0 0 1 -3.2-3.2v-1.6h-3.2v1.6a3.2 3.2 0 0 1 -3.2 3.2 3.2 3.2 0 0 1 -3.2-3.2 3.2 3.2 0 0 1 3.2-3.2h1.6v-3.2h-1.6a3.2 3.2 0 0 1 -3.2-3.2 3.2 3.2 0 0 1 3.2-3.2m8 12.8a1.6 1.6 0 0 0 1.6 1.6 1.6 1.6 0 0 0 1.6-1.6 1.6 1.6 0 0 0 -1.6-1.6h-1.6zm-1.6-6.4h-3.2v3.2h3.2zm-6.4 4.8a1.6 1.6 0 0 0 -1.6 1.6 1.6 1.6 0 0 0 1.6 1.6 1.6 1.6 0 0 0 1.6-1.6v-1.6zm1.6-8a1.6 1.6 0 0 0 -1.6-1.6 1.6 1.6 0 0 0 -1.6 1.6 1.6 1.6 0 0 0 1.6 1.6h1.6zm8 1.6a1.6 1.6 0 0 0 1.6-1.6 1.6 1.6 0 0 0 -1.6-1.6 1.6 1.6 0 0 0 -1.6 1.6v1.6z" fill="#f2f2f2"/></svg>

<?xml version="1.0" encoding="UTF-8" standalone="no"?>
<svg
   xmlns:osb="http://www.openswatchbook.org/uri/2009/osb"
   xmlns:dc="http://purl.org/dc/elements/1.1/"
   xmlns:cc="http://creativecommons.org/ns#"
   xmlns:rdf="http://www.w3.org/1999/02/22-rdf-syntax-ns#"
   xmlns:svg="http://www.w3.org/2000/svg"
   xmlns="http://www.w3.org/2000/svg"
   xmlns:sodipodi="http://sodipodi.sourceforge.net/DTD/sodipodi-0.dtd"
   xmlns:inkscape="http://www.inkscape.org/namespaces/inkscape"
   version="1.1"
   width="22"
   height="22"
   viewBox="0 0 22 22"
   id="svg2"
   inkscape:version="0.91 r13725"
   sodipodi:docname="auto-type.svg">
  <metadata
     id="metadata10">
    <rdf:RDF>
      <cc:Work
         rdf:about="">
        <dc:format>image/svg+xml</dc:format>
        <dc:type
           rdf:resource="http://purl.org/dc/dcmitype/StillImage" />
        <dc:title />
      </cc:Work>
    </rdf:RDF>
  </metadata>
  <defs
     id="defs8">
    <linearGradient
       osb:paint="gradient"
       id="linearGradient4207">
      <stop
         id="stop3371"
         offset="0"
         style="stop-color:#3498db;stop-opacity:1;" />
      <stop
         id="stop3373"
         offset="1"
         style="stop-color:#3498db;stop-opacity:0;" />
    </linearGradient>
  </defs>
  <sodipodi:namedview
     pagecolor="#ffffff"
     bordercolor="#666666"
     borderopacity="1"
     objecttolerance="10"
     gridtolerance="10"
     guidetolerance="10"
     inkscape:pageopacity="0"
     inkscape:pageshadow="2"
     inkscape:window-width="640"
     inkscape:window-height="480"
     id="namedview6"
     showgrid="false"
     inkscape:zoom="12.645834"
     inkscape:cx="8.9815222"
     inkscape:cy="12.811805"
     inkscape:current-layer="svg2" />
  <path
     d="m 6.2,3 a 3.2,3.2 0 0 1 3.2,3.2 l 0,1.6 3.2,0 0,-1.6 A 3.2,3.2 0 0 1 15.8,3 3.2,3.2 0 0 1 19,6.2 3.2,3.2 0 0 1 15.8,9.4 l -1.6,0 0,3.2 1.6,0 A 3.2,3.2 0 0 1 19,15.8 3.2,3.2 0 0 1 15.8,19 3.2,3.2 0 0 1 12.6,15.8 l 0,-1.6 -3.2,0 0,1.6 A 3.2,3.2 0 0 1 6.2,19 3.2,3.2 0 0 1 3,15.8 3.2,3.2 0 0 1 6.2,12.6 l 1.6,0 0,-3.2 -1.6,0 A 3.2,3.2 0 0 1 3,6.2 3.2,3.2 0 0 1 6.2,3 m 8,12.8 a 1.6,1.6 0 0 0 1.6,1.6 1.6,1.6 0 0 0 1.6,-1.6 1.6,1.6 0 0 0 -1.6,-1.6 l -1.6,0 0,1.6 m -1.6,-6.4 -3.2,0 0,3.2 3.2,0 0,-3.2 m -6.4,4.8 a 1.6,1.6 0 0 0 -1.6,1.6 1.6,1.6 0 0 0 1.6,1.6 1.6,1.6 0 0 0 1.6,-1.6 l 0,-1.6 -1.6,0 m 1.6,-8 A 1.6,1.6 0 0 0 6.2,4.6 1.6,1.6 0 0 0 4.6,6.2 1.6,1.6 0 0 0 6.2,7.8 l 1.6,0 0,-1.6 m 8,1.6 A 1.6,1.6 0 0 0 17.4,6.2 1.6,1.6 0 0 0 15.8,4.6 1.6,1.6 0 0 0 14.2,6.2 l 0,1.6 1.6,0 z"
     id="path4"
     style="fill:#f2f2f2;fill-opacity:1"
     inkscape:connector-curvature="0" />
</svg>
